SVG_Azure_Grouped/Networking/CDN Geo-Filtering.svg

<?xml version="1.0" encoding="UTF-8" standalone="no"?>
<!-- Generated by Microsoft Visio, SVG Export CDN Geo-Filtering.svg Page-1 -->

<svg
   xmlns:dc="http://purl.org/dc/elements/1.1/"
   xmlns:cc="http://creativecommons.org/ns#"
   xmlns:rdf="http://www.w3.org/1999/02/22-rdf-syntax-ns#"
   xmlns:svg="http://www.w3.org/2000/svg"
   xmlns="http://www.w3.org/2000/svg"
   xmlns:sodipodi="http://sodipodi.sourceforge.net/DTD/sodipodi-0.dtd"
   xmlns:inkscape="http://www.inkscape.org/namespaces/inkscape"
   width="0.68739694in"
   height="0.7874862in"
   viewBox="0 0 49.492837 56.69912"
   xml:space="preserve"
   class="st6"
   version="1.1"
   id="svg48"
   sodipodi:docname="CDN Geo-Filtering.svg"
   style="font-size:12px;overflow:visible;color-interpolation-filters:sRGB;fill:none;fill-rule:evenodd;stroke-linecap:square;stroke-miterlimit:3"
   inkscape:version="0.92.5 (2060ec1f9f, 2020-04-08)"><metadata
   id="metadata52"><rdf:RDF><cc:Work
       rdf:about=""><dc:format>image/svg+xml</dc:format><dc:type
         rdf:resource="http://purl.org/dc/dcmitype/StillImage" /></cc:Work></rdf:RDF></metadata><sodipodi:namedview
   pagecolor="#ffffff"
   bordercolor="#666666"
   borderopacity="1"
   objecttolerance="10"
   gridtolerance="10"
   guidetolerance="10"
   inkscape:pageopacity="0"
   inkscape:pageshadow="2"
   inkscape:window-width="640"
   inkscape:window-height="480"
   id="namedview50"
   showgrid="false"
   inkscape:zoom="1.4797381"
   inkscape:cx="32.985561"
   inkscape:cy="34.394885"
   inkscape:window-x="0"
   inkscape:window-y="0"
   inkscape:window-maximized="0"
   inkscape:current-layer="svg48" />
	<style
   type="text/css"
   id="style2">
	<![CDATA[
		.st1 {fill:#42e8ca;stroke:none;stroke-linecap:butt;stroke-width:28.8522}
		.st2 {fill:url(#grad0-8);stroke:none;stroke-linecap:butt;stroke-width:28.9086}
		.st3 {fill:#000000;stroke:none;stroke-linecap:butt;stroke-width:0.75}
		.st4 {fill:#ef7100;stroke:none;stroke-linecap:butt;stroke-width:28.9086}
		.st5 {fill:#f78d1e;stroke:none;stroke-linecap:butt;stroke-width:28.9086}
		.st6 {fill:none;fill-rule:evenodd;font-size:12px;overflow:visible;stroke-linecap:square;stroke-miterlimit:3}
	]]>
	</style>

	<defs
   id="Patterns_And_Gradients">
		<linearGradient
   id="grad0-8"
   x1="-1.0847786e-16"
   y1="82.10163"
   x2="40.324161"
   y2="82.10163"
   gradientTransform="scale(1.0234559,0.97708169)"
   gradientUnits="userSpaceOnUse">
			<stop
   offset="0"
   stop-color="#0078d4"
   stop-opacity="1"
   id="stop4" />
			<stop
   offset="0.82"
   stop-color="#5ea0ef"
   stop-opacity="1"
   id="stop6" />
		</linearGradient>
	</defs>
	<g
   id="g46"
   transform="translate(-28.8927,-28.905185)">
		<title
   id="title10">Page-1</title>
		<g
   id="group18112-1"
   transform="translate(28.8927,-34.0157)">
			<title
   id="title12">CDN Geo-Filtering.18112</title>
			<g
   id="group18113-2">
				<title
   id="title14">layer1</title>
				<g
   id="shape18114-3"
   transform="translate(0.0396678,-16.0157)">
					<title
   id="title16">circle8-3</title>
					<ellipse
   cx="20.9"
   cy="99.277496"
   rx="20.9"
   ry="20.3386"
   class="st1"
   id="ellipse18"
   style="fill:#42e8ca;stroke:none;stroke-width:28.85219955;stroke-linecap:butt" />
				</g>
				<g
   id="shape18115-5"
   transform="translate(0.0158732,-17.2993)">
					<title
   id="title21">circle8-4</title>
					<path
   d="m 20.94,80.22 a 20.9412,20.3785 0 0 0 -4.74,0.54 l 2.26,2.19 a 4.85964,4.7291 0 0 1 0,6.69 4.85964,4.7291 0 0 1 -6.87,0 L 7.13,85.3 a 20.9412,20.3785 0 0 0 -4.5,5.43 l 0.39,0.38 a 2.89782,2.81998 0 0 1 0,3.99 2.89782,2.81998 0 0 1 -2.45,0.8 20.9412,20.3785 0 0 0 -0.57,4.7 20.9412,20.3785 0 0 0 13.56,19.02 9.04577,8.80279 0 0 1 1.04,-1.23 9.04577,8.80279 0 0 1 12.79,-0.02 l 1.18,1.14 a 20.9412,20.3785 0 0 0 2.88,-1.34 L 27,113.84 a 2.09307,2.03684 0 0 1 0,-2.88 2.09307,2.03684 0 0 1 2.94,0 l -0.01,-0.02 a 1.54044,1.49906 -180 0 0 2.18,0 1.53699,1.4957 -180 0 0 0,-2.12 l 4.93,4.8 h 0.01 l -6.51,-6.34 c -3.11,-3.02 -3.11,-7.89 0,-10.91 v -0.01 c 2.95,-2.87 7.61,-3.02 10.73,-0.44 A 20.9412,20.3785 0 0 0 20.94,80.22 Z m -6.19,15.61 a 2.89782,2.81998 0 0 1 2.13,0.83 2.89782,2.81998 0 0 1 0,3.99 2.90473,2.82671 0 0 1 -4.1,0 2.90473,2.82671 0 0 1 0,-3.99 2.89782,2.81998 0 0 1 1.97,-0.83 z"
   class="st2"
   id="path23"
   inkscape:connector-curvature="0"
   style="fill:url(#grad0-8);stroke:none;stroke-width:28.90859985;stroke-linecap:butt" />
				</g>
				<g
   id="group18116-9"
   transform="translate(0,-15.933)">
					<title
   id="title26">3b4c7da4-e396-46ab-8eeb-4c87ba1</title>
					<g
   id="shape18117-10">
						<title
   id="title28">circle27-9</title>
						<ellipse
   cx="20.941"
   cy="99.237503"
   rx="20.941"
   ry="20.3785"
   class="st3"
   id="ellipse30"
   style="fill:#000000;stroke:none;stroke-width:0.75;stroke-linecap:butt" />
					</g>
				</g>
				<g
   id="shape18118-12"
   transform="translate(17.938,-3.18641)">
					<title
   id="title34">path4</title>
					<path
   d="m 7.77,113.57 c 0,-0.52 -2.12,-0.52 -2.12,0 A 5.71966,5.56602 0 0 1 0,119.62 h 13.41 a 5.71621,5.56266 0 0 1 -5.64,-6.05 z"
   class="st4"
   id="path36"
   inkscape:connector-curvature="0"
   style="fill:#ef7100;stroke:none;stroke-width:28.90859985;stroke-linecap:butt" />
				</g>
				<g
   id="shape18119-14"
   transform="translate(1.3324)">
					<title
   id="title39">path6</title>
					<path
   d="m 38.31,64.49 a 1.97218,1.9192 0 0 1 2.79,0 l 0.09,0.09 A 28.7365,27.9646 0 0 1 0.65,104.01 1.96872,1.91584 0 0 1 0.48,101.32 l 0.09,-0.09 a 1.97218,1.9192 0 0 1 2.7,-0.1 24.7921,24.1262 -180 0 0 34.96,-34.01 1.97909,1.92593 0 0 1 0.08,-2.63 z m -4.8,55.13 H 13.13 a 1.64406,1.5999 0 0 1 -1.64,-1.6 1.64406,1.5999 0 0 1 1.64,-1.6 h 20.38 a 1.64406,1.5999 0 0 1 1.64,1.6 1.64406,1.5999 0 0 1 -1.64,1.6 z"
   class="st5"
   id="path41"
   inkscape:connector-curvature="0"
   style="fill:#f78d1e;stroke:none;stroke-width:28.90859985;stroke-linecap:butt" />
				</g>
			</g>
		</g>
	</g>
</svg>

<?xml version="1.0" encoding="UTF-8" standalone="no"?>
<!DOCTYPE svg PUBLIC "-//W3C//DTD SVG 1.1//EN" "http://www.w3.org/Graphics/SVG/1.1/DTD/svg11.dtd">
<!-- Generated by Microsoft Visio, SVG Export CDN Geo-Filtering.svg Page-1 -->
<svg xmlns="http://www.w3.org/2000/svg" xmlns:xlink="http://www.w3.org/1999/xlink" xmlns:ev="http://www.w3.org/2001/xml-events"
		width="1.48977in" height="1.66133in" viewBox="0 0 107.264 119.616" xml:space="preserve" color-interpolation-filters="sRGB"
		class="st6">
	<style type="text/css">
	<![CDATA[
		.st1 {fill:#42e8ca;stroke:none;stroke-linecap:butt;stroke-width:28.8522}
		.st2 {fill:url(#grad0-8);stroke:none;stroke-linecap:butt;stroke-width:28.9086}
		.st3 {fill:#000000;stroke:none;stroke-linecap:butt;stroke-width:0.75}
		.st4 {fill:#ef7100;stroke:none;stroke-linecap:butt;stroke-width:28.9086}
		.st5 {fill:#f78d1e;stroke:none;stroke-linecap:butt;stroke-width:28.9086}
		.st6 {fill:none;fill-rule:evenodd;font-size:12px;overflow:visible;stroke-linecap:square;stroke-miterlimit:3}
	]]>
	</style>

	<defs id="Patterns_And_Gradients">
		<linearGradient id="grad0-8" x1="0" y1="0" x2="1" y2="0" gradientTransform="rotate(-45.554166074105 0.5 0.5)">
			<stop offset="0" stop-color="#0078d4" stop-opacity="1"/>
			<stop offset="0.82" stop-color="#5ea0ef" stop-opacity="1"/>
		</linearGradient>
	</defs>
	<g>
		<title>Page-1</title>
		<g id="group17698-1" transform="translate(28.8927,-34.0157)">
			<title>CDN Geo-Filtering.17698</title>
			<g id="group17699-2">
				<title>layer1</title>
				<g id="shape17700-3" transform="translate(0.0396678,-16.0157)">
					<title>circle8-3</title>
					<ellipse cx="20.9" cy="99.2775" rx="20.9" ry="20.3386" class="st1"/>
				</g>
				<g id="shape17701-5" transform="translate(0.0158732,-17.2993)">
					<title>circle8-4</title>
					<path d="M20.94 80.22 A20.9412 20.3785 0 0 0 16.2 80.76 L18.46 82.95 A4.85964 4.7291 0 0 1 18.46 89.64 A4.85964
								 4.7291 0 0 1 11.59 89.64 L7.13 85.3 A20.9412 20.3785 0 0 0 2.63 90.73 L3.02 91.11 A2.89782 2.81998
								 0 0 1 3.02 95.1 A2.89782 2.81998 0 0 1 0.57 95.9 A20.9412 20.3785 0 0 0 0 100.6 A20.9412 20.3785
								 0 0 0 13.56 119.62 A9.04577 8.80279 0 0 1 14.6 118.39 A9.04577 8.80279 0 0 1 27.39 118.37 L28.57
								 119.51 A20.9412 20.3785 0 0 0 31.45 118.17 L27 113.84 A2.09307 2.03684 0 0 1 27 110.96 A2.09307
								 2.03684 0 0 1 29.94 110.96 L29.93 110.94 A1.54044 1.49906 -180 0 0 32.11 110.94 A1.53699 1.4957
								 -180 0 0 32.11 108.82 L37.04 113.62 L37.05 113.62 L30.54 107.28 C27.43 104.26 27.43 99.39 30.54
								 96.37 L30.54 96.36 C33.49 93.49 38.15 93.34 41.27 95.92 A20.9412 20.3785 0 0 0 20.94 80.22 ZM14.75
								 95.83 A2.89782 2.81998 0 0 1 16.88 96.66 A2.89782 2.81998 0 0 1 16.88 100.65 A2.90473 2.82671 0
								 0 1 12.78 100.65 A2.90473 2.82671 0 0 1 12.78 96.66 A2.89782 2.81998 0 0 1 14.75 95.83 Z"
							class="st2"/>
				</g>
				<g id="group17702-9" transform="translate(0,-15.933)">
					<title>3b4c7da4-e396-46ab-8eeb-4c87ba1</title>
					<g id="shape17703-10">
						<title>circle27-9</title>
						<ellipse cx="20.941" cy="99.2375" rx="20.941" ry="20.3785" class="st3"/>
					</g>
				</g>
				<g id="shape17704-12" transform="translate(17.938,-3.18641)">
					<title>path4</title>
					<path d="M7.77 113.57 C7.77 113.05 5.65 113.05 5.65 113.57 A5.71966 5.56602 0 0 1 0 119.62 L13.41 119.62 A5.71621
								 5.56266 0 0 1 7.77 113.57 Z" class="st4"/>
				</g>
				<g id="shape17705-14" transform="translate(1.3324,0)">
					<title>path6</title>
					<path d="M38.31 64.49 A1.97218 1.9192 0 0 1 41.1 64.49 L41.19 64.58 A28.7365 27.9646 0 0 1 0.65 104.01 A1.96872
								 1.91584 0 0 1 0.48 101.32 L0.57 101.23 A1.97218 1.9192 0 0 1 3.27 101.13 A24.7921 24.1262 -180 0
								 0 38.23 67.12 A1.97909 1.92593 0 0 1 38.31 64.49 L38.31 64.49 ZM33.51 119.62 L13.13 119.62 A1.64406
								 1.5999 0 0 1 11.49 118.02 A1.64406 1.5999 0 0 1 13.13 116.42 L33.51 116.42 A1.64406 1.5999 0 0 1
								 35.15 118.02 A1.64406 1.5999 0 0 1 33.51 119.62 Z" class="st5"/>
				</g>
			</g>
		</g>
	</g>
</svg>
